proprietary/assets/icons/op-kantoor/boek.svg

<svg height="64" viewBox="0 0 64 64" width="64" xmlns="http://www.w3.org/2000/svg"><path d="m0 0h64v64h-64z" fill="none"/><path d="m54.8868 4s-26.8329 0-33.8868 0c-6.9338 0-14 2.6875-14 9.9661v39.1923c0 4.0852 2.1243 6.8416 6 6.8416h33.8831c1.1691 0 2.1169-.9461 2.1169-2.1132v-41.7736c0-1.1671-.9478-2.1132-2.1169-2.1132-10.9956 0-21.9893 0-33.002 0-.912 0-1.3414-.8251-1.0179-1.7457 1.0118-2.8793 6.2618-3.2543 8.1368-3.2543h31v42h3c1.1046 0 2-.8954 2-2v-42.8868c0-1.1671-.9461-2.1132-2.1132-2.1132z"/></svg>

<?xml version="1.0" encoding="utf-8"?>
<!-- Generator: Adobe Illustrator 19.1.0, SVG Export Plug-In . SVG Version: 6.00 Build 0)  -->
<svg version="1.2" baseProfile="tiny" xmlns="http://www.w3.org/2000/svg" xmlns:xlink="http://www.w3.org/1999/xlink" x="0px"
	 y="0px" width="64px" height="64px" viewBox="0 0 64 64" xml:space="preserve">
<g id="_x36_4px_Box">
	<rect fill="none" width="64" height="64"/>
</g>
<g id="Icon">
	<path d="M54.8868,4c0,0-26.8329,0-33.8868,0C14.0662,4,7,6.6875,7,13.9661c0,13.929,0,25.3256,0,39.1923C7,57.2436,9.1243,60,13,60
		c20.0839,0,13.5797,0,33.8831,0C48.0522,60,49,59.0539,49,57.8868V16.1132C49,14.9461,48.0522,14,46.8831,14
		c-10.9956,0-21.9893,0-33.002,0c-0.912,0-1.3414-0.8251-1.0179-1.7457C13.875,9.375,19.125,9,21,9c1.1094,0,31,0,31,0v42h3
		c1.1046,0,2-0.8954,2-2V6.1132C57,4.9461,56.0539,4,54.8868,4z"/>
</g>
</svg>
